src/cmd/lc_sbaexecutesql.svg

<?xml version="1.0" encoding="UTF-8" standalone="no"?>
<svg
   xmlns:dc="http://purl.org/dc/elements/1.1/"
   xmlns:cc="http://creativecommons.org/ns#"
   xmlns:rdf="http://www.w3.org/1999/02/22-rdf-syntax-ns#"
   xmlns:svg="http://www.w3.org/2000/svg"
   xmlns="http://www.w3.org/2000/svg"
   xmlns:sodipodi="http://sodipodi.sourceforge.net/DTD/sodipodi-0.dtd"
   xmlns:inkscape="http://www.inkscape.org/namespaces/inkscape"
   viewBox="0 0 24 24"
   version="1.1"
   id="svg4"
   sodipodi:docname="lc_sbaexecutesql.svg"
   inkscape:export-filename="/home/jupiter007/Libreoffice yaru theme fullcolor/build/cmd/lc_sbaexecutesql.png"
   inkscape:export-xdpi="96"
   inkscape:export-ydpi="96"
   inkscape:version="0.92.5 (2060ec1f9f, 2020-04-08)">
  <metadata
     id="metadata10">
    <rdf:RDF>
      <cc:Work
         rdf:about="">
        <dc:format>image/svg+xml</dc:format>
        <dc:type
           rdf:resource="http://purl.org/dc/dcmitype/StillImage" />
      </cc:Work>
    </rdf:RDF>
  </metadata>
  <defs
     id="defs8" />
  <sodipodi:namedview
     pagecolor="#ffffff"
     bordercolor="#666666"
     borderopacity="1"
     objecttolerance="10"
     gridtolerance="10"
     guidetolerance="10"
     inkscape:pageopacity="0"
     inkscape:pageshadow="2"
     inkscape:window-width="1920"
     inkscape:window-height="1011"
     id="namedview6"
     showgrid="true"
     inkscape:zoom="19.666667"
     inkscape:cx="9.2396103"
     inkscape:cy="8.9065155"
     inkscape:window-x="0"
     inkscape:window-y="32"
     inkscape:window-maximized="1"
     inkscape:current-layer="svg4">
    <inkscape:grid
       type="xygrid"
       id="grid825" />
  </sodipodi:namedview>
  <path
     style="fill:#f2cbf8;fill-opacity:1"
     id="path819"
     d="M 11.999999,4 C 7.5817218,4 3.9999998,4.895426 3.9999998,6 v 4 8 c 0,1.1046 3.5817219,2 7.9999992,2 C 16.418278,20 20,19.1046 20,18 V 10 6 C 20,4.895426 16.418278,4 11.999999,4 Z"
     inkscape:connector-curvature="0"
     sodipodi:nodetypes="sscssscss" />
  <path
     inkscape:connector-curvature="0"
     d="M 11.999999,4 C 7.5817218,4 3.9999998,4.895426 3.9999998,6 v 4 8 c 0,1.1046 3.5817219,2 7.9999992,2 C 16.418278,20 20,19.1046 20,18 V 10 6 C 20,4.895426 16.418278,4 11.999999,4 Z m 0,1 C 15.865993,5 19,5.447715 19,6 19,6.552285 15.865993,7 11.999999,7 8.1340068,7 4.9999998,6.552285 4.9999998,6 c 0,-0.552285 3.134007,-1 6.9999992,-1 z M 4.9999998,6.9375 C 6.3529557,7.56242 8.9580752,8 11.999999,8 15.041924,8 17.647043,7.56242 19,6.9375 V 10 c 0,0.5523 -3.134007,1 -7.000001,1 C 8.1340068,11 4.9999998,10.5523 4.9999998,10 V 9.0625 Z m 0,4 C 6.3529557,11.562421 8.9580752,12 11.999999,12 15.041924,12 17.647043,11.562421 19,10.9375 V 14 c 0,0.5523 -3.134007,1 -7.000001,1 -3.8659922,0 -6.9999992,-0.4477 -6.9999992,-1 z m 0,4 C 6.3529557,15.562421 8.9580752,16 11.999999,16 15.041924,16 17.647043,15.562421 19,14.9375 V 18 c 0,0.5523 -3.134007,1 -7.000001,1 -3.8659922,0 -6.9999992,-0.4477 -6.9999992,-1 z"
     id="path2"
     style="fill:#8e03a3;fill-opacity:1" />
  <path
     sodipodi:nodetypes="cccccccc"
     style="opacity:0.6;fill:#000000;fill-opacity:1;stroke:#000000;stroke-width:2;stroke-linecap:butt;stroke-linejoin:round;stroke-miterlimit:4;stroke-dasharray:none;stroke-opacity:1"
     d="M 22,18.5 18,22 v -2 h -4 v -3 h 4 v -2 z"
     id="path839"
     inkscape:connector-curvature="0" />
  <path
     sodipodi:nodetypes="cccccccc"
     id="path841"
     d="M 22,18.5 18,22 v -2 h -4 v -3 h 4 v -2 z"
     style="fill:#ffffff;fill-opacity:1;stroke:none;stroke-width:1px;stroke-linecap:butt;stroke-linejoin:miter;stroke-opacity:1"
     inkscape:connector-curvature="0" />
</svg>

<svg viewBox="0 0 24 24" xmlns="http://www.w3.org/2000/svg"><path d="m12 4c-4.418278 0-8 .8954-8 2v4 8c0 1.1046 3.581722 2 8 2 .690356 0 1.360964-.021397 2-.0625v-1c-.646468.028144-1.289092.0625-2 .0625-3.8659932 0-7-.4477-7-1v-3.0625c1.3529566.6249 3.9580758 1.0625 7 1.0625.695416 0 1.359983-.051 2-.09375v-.96875c-.646468.028144-1.289092.0625-2 .0625-3.8659932 0-7-.4477-7-1v-3.0625c1.3529566.6249 3.9580758 1.0625 7 1.0625 3.041924 0 5.647043-.4376 7-1.0625v3.0625h1v-4-4c0-1.1046-3.581722-2-8-2zm0 1c3.865993 0 7 .4477 7 1s-3.134007 1-7 1c-3.8659932 0-7-.4477-7-1s3.1340068-1 7-1zm-7 1.9375c1.3529566.6249 3.9580758 1.0625 7 1.0625 3.041924 0 5.647043-.4376 7-1.0625v3.0625c0 .5523-3.134007 1-7 1-3.8659932 0-7-.4477-7-1v-.9375zm12 7.0625v2h-2v2h2v2l4-3z" fill="#232629"/></svg>
